svg/Outline/volume-low.svg

<svg viewBox="0 0 24 24" xmlns="http://www.w3.org/2000/svg" width="24" height="24"><path fill-rule="evenodd" d="M13.6 5.7q.74.13 1.21.73c.26.34.33.75.36 1.07q.04.5.03 1.22v6.56q0 .72-.03 1.22c-.03.32-.1.73-.36 1.07a2 2 0 0 1-1.41.74c-.44.03-.8-.15-1.09-.3q-.43-.26-1.02-.67l-1.92-1.32a8 8 0 0 0-.9-.58 3 3 0 0 0-.9-.28 8 8 0 0 0-1.08-.03l-.33-.01q-.17 0-.44-.1a1.4 1.4 0 0 1-.87-1.21v-3.62q0-.17.1-.44L5 9.62q.24-.45.7-.64l.13-.05q.19-.04.32-.05h.33c.63 0 .86 0 1.07-.04q.48-.07.9-.28c.2-.1.38-.22.9-.58l1.93-1.32q.59-.41 1.02-.67a2 2 0 0 1 1.09-.3zm-.4 1.86-.9.59-1.91 1.31c-.48.33-.8.55-1.14.72a5 5 0 0 1-2.6.5v2.65a5 5 0 0 1 2.6.5c.34.16.66.37 1.14.7l1.91 1.32c.43.3.7.47.9.59l.14.07.01-.01.03-.16c.02-.23.02-.55.02-1.06V8.72q0-.73-.02-1.06 0-.12-.03-.16h-.01z" clip-rule="evenodd"/><path d="M17.88 8.1a.9.9 0 0 1 1.21.02l.06.06.13.15q.42.58.68 1.47a8 8 0 0 1 0 4.4 4 4 0 0 1-.8 1.62.9.9 0 0 1-1.37-1.18c.12-.13.3-.43.44-.93a6.3 6.3 0 0 0-.34-4.22l-.1-.13-.05-.07a.9.9 0 0 1 .14-1.2"/></svg>

<svg viewBox="0 0 24 24" xmlns="http://www.w3.org/2000/svg" width="24" height="24"><path fill-rule="evenodd" d="M13.6 5.7q.74.13 1.21.73c.26.34.33.75.36 1.07q.04.5.03 1.22v6.56q0 .72-.03 1.22c-.03.32-.1.73-.36 1.07a2 2 0 0 1-1.41.74c-.44.03-.8-.15-1.09-.3q-.43-.26-1.02-.67l-1.92-1.32a8 8 0 0 0-.9-.58 3 3 0 0 0-.9-.28 8 8 0 0 0-1.08-.03l-.33-.01q-.17 0-.44-.1a1.4 1.4 0 0 1-.87-1.21v-3.62q0-.17.1-.44L5 9.62q.24-.45.7-.64l.13-.05q.19-.04.32-.05h.33c.63 0 .86 0 1.07-.04q.48-.07.9-.28c.2-.1.38-.22.9-.58l1.93-1.32q.59-.41 1.02-.67a2 2 0 0 1 1.09-.3zM13.2 7.56L10.39 9.46C9.91 9.79 9.59 10.01 9.25 10.18A5 5 0 0 1 6.65 10.68L6.65 13.33A5 5 0 0 1 9.25 13.83C9.59 13.99 9.91 14.2 10.39 14.53L12.3 15.85C12.73 16.15 13 16.32 13.2 16.44L13.35 16.5L13.38 16.34C13.4 16.11 13.4 15.79 13.4 15.28L13.4 8.72Q13.4 7.99 13.38 7.66Q13.38 7.54 13.35 7.5L13.34 7.5Z" clip-rule="evenodd"/><path d="M17.88 8.1A.9 .9 0 0 1 19.09 8.12L19.28 8.33Q19.7 8.91 19.96 9.8A8 8 0 0 1 19.96 14.2A4 4 0 0 1 19.16 15.82A.9 .9 0 0 1 17.79 14.64C17.91 14.51 18.09 14.21 18.23 13.71A6.3 6.3 0 0 0 17.89 9.49L17.74 9.29A.9 .9 0 0 1 17.88 8.09"/></svg>
